site/corp/images/icons/icon-manager.svg

<?xml version="1.0" encoding="UTF-8"?>
<svg width="32px" height="38px" viewBox="0 0 32 38" version="1.1" xmlns="http://www.w3.org/2000/svg" xmlns:xlink="http://www.w3.org/1999/xlink">
    <!-- Generator: Sketch 49 (51002) - http://www.bohemiancoding.com/sketch -->
    <title>icon</title>
    <desc>Created with Sketch.</desc>
    <defs>
        <path d="M32,12 L0,12 L1.50102153e-13,9.59660188 C1.64603274e-13,7.64412852 1.03512228,5.83800917 2.71977303,4.85104206 L11,0 L21,0 L29.280227,4.85104206 C30.9648777,5.83800917 32,7.64412852 32,9.59660188 L32,12 Z M26.5,29 L5.5,29 L26.5,29 Z" id="path-1"></path>
        <rect id="path-2" x="11" y="19" width="10" height="13" rx="5"></rect>
        <path d="M12.546948,24.5860281 C12.0171124,25.4350752 11.0745288,26 10,26 C8.92547118,26 7.98288763,25.4350752 7.45305196,24.5860281 C4.28349483,23.5223126 2,20.5278257 2,17 L2,12 C2,7.581722 5.581722,4 10,4 C14.418278,4 18,7.581722 18,12 L18,17 C18,20.5278257 15.7165052,23.5223126 12.546948,24.5860281 Z" id="path-3"></path>
        <path d="M14.537421,7.21746967 C11.7838036,12.2052429 2.16484521,5.92824643 2.37915772,14.8949055 C2.39162948,15.4167133 0.580965673,11.8120059 0.849028147,8.31034932 C1.11709062,4.8086927 2.93978683,2.03600608 5.92736303,0.880852975 C9.64834867,-0.557874557 13.3615686,-0.0899678748 14.537421,2.81488749 C19.6641158,2.81488749 20.5911328,9.37465867 17.4737918,14.1459607 C17.4737918,7.22560192 14.537421,7.21746967 14.537421,7.21746967 Z" id="path-4"></path>
    </defs>
    <g id="1260" stroke="none" stroke-width="1" fill="none" fill-rule="evenodd">
        <g id="1260-index" transform="translate(-844.000000, -1321.000000)">
            <g id="body" transform="translate(0.000000, 170.000000)">
                <g id="features" transform="translate(40.000000, 1150.000000)">
                    <g id="features-copy">
                        <g id="Group-4" transform="translate(800.000000, 0.000000)">
                            <g id="icon">
                                <g transform="translate(4.000000, 1.000000)">
                                    <g id="Group-11" transform="translate(0.000000, 26.000000)">
                                        <g id="Combined-Shape">
                                            <use fill="#FFFFFF" fill-rule="evenodd" xlink:href="#path-1"></use>
                                            <path stroke="#FDCE34" stroke-width="2" d="M31,11 L31,9.59660188 C31,7.99912367 30.1530818,6.52138966 28.7747312,5.71387112 L20.7286408,1 L11.2713592,1 L3.22526885,5.71387112 C1.84691823,6.52138966 1,7.99912367 1,9.59660188 L1,11 L31,11 Z M26.5,28 L26.5,30 L5.5,30 L5.5,28 L26.5,28 Z"></path>
                                        </g>
                                    </g>
                                    <g id="Rectangle-6">
                                        <use fill="#FFFFFF" fill-rule="evenodd" xlink:href="#path-2"></use>
                                        <rect stroke="#FDCE34" stroke-width="2" x="12" y="20" width="8" height="11" rx="4"></rect>
                                    </g>
                                    <g id="head" transform="translate(6.000000, 0.000000)">
                                        <g id="Combined-Shape">
                                            <use fill="#FFFFFF" fill-rule="evenodd" xlink:href="#path-3"></use>
                                            <path stroke="#FDCE34" stroke-width="2" d="M11.6985823,24.0566176 L11.8885683,23.7521701 L12.2287837,23.6379926 C15.0561777,22.6891083 17,20.0307335 17,17 L17,12 C17,8.13400675 13.8659932,5 10,5 C6.13400675,5 3,8.13400675 3,12 L3,17 C3,20.0307335 4.9438223,22.6891083 7.77121634,23.6379926 L8.11143165,23.7521701 L8.30141774,24.0566176 C8.66511669,24.6394351 9.30092678,25 10,25 C10.6990732,25 11.3348833,24.6394351 11.6985823,24.0566176 Z"></path>
                                        </g>
                                        <ellipse id="Oval-5" fill="#FDCE34" cx="13" cy="15.5" rx="1" ry="1.5"></ellipse>
                                        <ellipse id="Oval-5-Copy" fill="#FDCE34" cx="7" cy="15.5" rx="1" ry="1.5"></ellipse>
                                        <g id="Path-4">
                                            <use fill="#FFFFFF" fill-rule="evenodd" xlink:href="#path-4"></use>
                                            <path stroke="#FDCE34" stroke-width="2" d="M18.0774896,10.2471978 C18.8461827,6.8346706 17.475112,3.81488749 14.537421,3.81488749 L13.8633891,3.81488749 L13.6104828,3.19010154 C12.73965,1.03877425 9.78251619,0.462396635 6.28799654,1.81356058 C3.71283299,2.8092534 2.08934523,5.2093468 1.84611078,8.38667903 C1.77705872,9.28869485 1.858003,10.2623859 2.05373095,11.23311 C2.44405944,10.4678138 3.00258668,9.87717417 3.7284658,9.4494469 C4.90217296,8.7578351 5.98410806,8.60090261 8.55310029,8.508338 C8.66850075,8.50418071 8.66850075,8.50418071 8.78332773,8.49997619 C11.7695405,8.38972944 12.9446634,8.03345821 13.6619727,6.73415787 L13.9481257,6.21583379 L14.5401905,6.21747351 C15.1819585,6.21925088 16.0133674,6.54812711 16.7688141,7.4404274 C17.3445953,8.12051473 17.7875505,9.0469074 18.0774896,10.2471978 Z"></path>
                                        </g>
                                    </g>
                                </g>
                            </g>
                        </g>
                    </g>
                </g>
            </g>
        </g>
    </g>
</svg>

<svg width="32" height="38" viewBox="0 0 32 38" xmlns="http://www.w3.org/2000/svg" xmlns:xlink="http://www.w3.org/1999/xlink"><title>icon</title><defs><path d="M32 12H0V9.597A5.5 5.5 0 0 1 2.72 4.85L11 0h10l8.28 4.851A5.5 5.5 0 0 1 32 9.597V12zm-5.5 17h-21 21z" id="a"/><rect id="b" x="11" y="19" width="10" height="13" rx="5"/><path d="M12.547 24.586A2.998 2.998 0 0 1 10 26a2.998 2.998 0 0 1-2.547-1.414A8.003 8.003 0 0 1 2 17v-5a8 8 0 1 1 16 0v5a8.003 8.003 0 0 1-5.453 7.586z" id="c"/><path d="M14.537 7.217C11.784 12.205 2.165 5.928 2.38 14.895c.013.522-1.798-3.083-1.53-6.585.268-3.501 2.09-6.274 5.078-7.43 3.721-1.438 7.435-.97 8.61 1.935 5.127 0 6.054 6.56 2.937 11.331 0-6.92-2.937-6.929-2.937-6.929z" id="d"/></defs><g fill="none" fill-rule="evenodd"><g transform="translate(0 26)"><use fill="#FFF" xlink:href="#a"/><path stroke="#FDCE34" stroke-width="2" d="M31 11V9.597a4.5 4.5 0 0 0-2.225-3.883L20.729 1H11.27L3.225 5.714A4.5 4.5 0 0 0 1 9.597V11h30zm-4.5 17v2h-21v-2h21z"/></g><use fill="#FFF" xlink:href="#b"/><rect stroke="#FDCE34" stroke-width="2" x="12" y="20" width="8" height="11" rx="4"/><g transform="translate(6)"><use fill="#FFF" xlink:href="#c"/><path stroke="#FDCE34" stroke-width="2" d="M11.699 24.057l.19-.305.34-.114A7.003 7.003 0 0 0 17 17v-5a7 7 0 0 0-14 0v5c0 3.03 1.944 5.69 4.771 6.638l.34.114.19.305a2 2 0 0 0 3.398 0z"/><ellipse fill="#FDCE34" cx="13" cy="15.5" rx="1" ry="1.5"/><ellipse fill="#FDCE34" cx="7" cy="15.5" rx="1" ry="1.5"/><use fill="#FFF" xlink:href="#d"/><path stroke="#FDCE34" stroke-width="2" d="M18.077 10.247c.77-3.412-.602-6.432-3.54-6.432h-.674l-.253-.625C12.74 1.04 9.783.462 6.288 1.814c-2.575.995-4.199 3.395-4.442 6.573-.069.902.012 1.875.208 2.846A4.284 4.284 0 0 1 3.728 9.45c1.174-.691 2.256-.848 4.825-.94l.23-.009c2.987-.11 4.162-.467 4.879-1.766l.286-.518.592.001c.642.002 1.473.331 2.229 1.223.576.68 1.019 1.607 1.308 2.807z"/></g></g></svg>
